Simply-Blue-Circles/scalable/apps/wikipedia.svg

<svg xmlns="http://www.w3.org/2000/svg" width="48" height="48" viewBox="0 0 12.7 12.7"><path d="M6.34.07a6.29 6.29 0 0 0-6.29 6.3 6.29 6.29 0 0 0 6.3 6.28 6.29 6.29 0 0 0 6.28-6.29A6.29 6.29 0 0 0 6.34.07zM6.32 1l.01.01a5.4 5.4 0 0 1 5.4 5.4 5.4 5.4 0 0 1-5.4 5.41 5.4 5.4 0 0 1-5.41-5.4A5.4 5.4 0 0 1 6.32 1zm1.35 3.23h-.88l-.02.02v.15c0 .02 0 .03.02.04.02.02.04.02.05.02l.07.01c.18 0 .27.05.3.08.04.06.06.11-.05.34L6.54 6.1l-.56-1.13c-.18-.36-.23-.47.05-.5h.11c.05 0 .08-.02.08-.06v-.16l-.04-.01H4.67l-.02.01v.16c0 .04.04.05.1.06.27.03.26.06.52.56l.15.3L6 6.46l.17.37-.85 1.67h-.04s-1.32-2.75-1.7-3.67a.62.62 0 0 1-.06-.2c0-.1.09-.15.26-.15l.2-.01c.05 0 .07-.02.07-.07v-.14l-.01-.02h-1.9l-.02.02v.15c0 .03.03.05.1.06.2 0 .34.04.4.09.06.05.13.19.22.4.48 1.13 1.5 3.16 1.99 4.31.14.32.32.37.54 0l.98-1.94c0-.07 0 .06.06.02l.9 1.9c.15.34.34.37.52.02.5-1.07 1.92-4.3 1.92-4.3a.85.85 0 0 1 .25-.36.87.87 0 0 1 .51-.15c.05 0 .07-.02.07-.06v-.15l-.01-.02H8.82l-.03.02v.15c0 .02.01.03.03.04.01.02.03.02.05.02l.15.01c.17 0 .22.04.3.1.06.06.07.17.02.31L7.79 8.51l-.06-.01-.99-1.99.03-.05.8-1.48.23-.36c.09-.12.13-.15.36-.16.05 0 .07-.02.07-.06v-.15l-.01-.01h-.55z" fill="#2c89a0"/></svg>

<?xml version="1.0" encoding="UTF-8" standalone="no"?>
<svg
   xmlns:dc="http://purl.org/dc/elements/1.1/"
   xmlns:cc="http://creativecommons.org/ns#"
   xmlns:rdf="http://www.w3.org/1999/02/22-rdf-syntax-ns#"
   xmlns:svg="http://www.w3.org/2000/svg"
   xmlns="http://www.w3.org/2000/svg"
   xmlns:sodipodi="http://sodipodi.sourceforge.net/DTD/sodipodi-0.dtd"
   xmlns:inkscape="http://www.inkscape.org/namespaces/inkscape"
   width="48"
   height="48"
   viewBox="0 0 12.7 12.7"
   version="1.1"
   id="svg4"
   sodipodi:docname="wikipedia.svg"
   inkscape:version="0.92.4 (5da689c313, 2019-01-14)">
  <metadata
     id="metadata10">
    <rdf:RDF>
      <cc:Work
         rdf:about="">
        <dc:format>image/svg+xml</dc:format>
        <dc:type
           rdf:resource="http://purl.org/dc/dcmitype/StillImage" />
        <dc:title></dc:title>
      </cc:Work>
    </rdf:RDF>
  </metadata>
  <defs
     id="defs8" />
  <sodipodi:namedview
     pagecolor="#ffffff"
     bordercolor="#666666"
     borderopacity="1"
     objecttolerance="10"
     gridtolerance="10"
     guidetolerance="10"
     inkscape:pageopacity="0"
     inkscape:pageshadow="2"
     inkscape:window-width="1087"
     inkscape:window-height="480"
     id="namedview6"
     showgrid="false"
     inkscape:zoom="4.9166667"
     inkscape:cx="2.1355932"
     inkscape:cy="24"
     inkscape:window-x="0"
     inkscape:window-y="25"
     inkscape:window-maximized="0"
     inkscape:current-layer="svg4" />
  <path
     d="M 6.34,0.07 A 6.29,6.29 0 0 0 0.05,6.37 6.29,6.29 0 0 0 6.35,12.65 6.29,6.29 0 0 0 12.63,6.36 6.29,6.29 0 0 0 6.34,0.07 Z M 6.32,1 6.33,1.01 a 5.4,5.4 0 0 1 5.4,5.4 5.4,5.4 0 0 1 -5.4,5.41 A 5.4,5.4 0 0 1 0.92,6.42 5.4,5.4 0 0 1 6.32,1 Z M 7.67,4.23 H 6.79 L 6.77,4.25 V 4.4 c 0,0.02 0,0.03 0.02,0.04 0.02,0.02 0.04,0.02 0.05,0.02 l 0.07,0.01 c 0.18,0 0.27,0.05 0.3,0.08 0.04,0.06 0.06,0.11 -0.05,0.34 L 6.54,6.1 5.98,4.97 C 5.8,4.61 5.75,4.5 6.03,4.47 h 0.11 c 0.05,0 0.08,-0.02 0.08,-0.06 V 4.25 L 6.18,4.24 H 4.67 L 4.65,4.25 v 0.16 c 0,0.04 0.04,0.05 0.1,0.06 0.27,0.03 0.26,0.06 0.52,0.56 L 5.42,5.33 6,6.46 6.17,6.83 5.32,8.5 H 5.28 c 0,0 -1.32,-2.75 -1.7,-3.67 A 0.62,0.62 0 0 1 3.52,4.63 c 0,-0.1 0.09,-0.15 0.26,-0.15 L 3.98,4.47 C 4.03,4.47 4.05,4.45 4.05,4.4 V 4.26 L 4.04,4.24 H 2.14 L 2.12,4.26 v 0.15 c 0,0.03 0.03,0.05 0.1,0.06 0.2,0 0.34,0.04 0.4,0.09 0.06,0.05 0.13,0.19 0.22,0.4 0.48,1.13 1.5,3.16 1.99,4.31 0.14,0.32 0.32,0.37 0.54,0 L 6.35,7.33 c 0,-0.07 0,0.06 0.06,0.02 l 0.9,1.9 C 7.46,9.59 7.65,9.62 7.83,9.27 8.33,8.2 9.75,4.97 9.75,4.97 A 0.85,0.85 0 0 1 10,4.61 0.87,0.87 0 0 1 10.51,4.46 c 0.05,0 0.07,-0.02 0.07,-0.06 V 4.25 L 10.57,4.23 H 8.82 L 8.79,4.25 V 4.4 c 0,0.02 0.01,0.03 0.03,0.04 0.01,0.02 0.03,0.02 0.05,0.02 l 0.15,0.01 c 0.17,0 0.22,0.04 0.3,0.1 0.06,0.06 0.07,0.17 0.02,0.31 L 7.79,8.51 7.73,8.5 6.74,6.51 6.77,6.46 7.57,4.98 7.8,4.62 C 7.89,4.5 7.93,4.47 8.16,4.46 8.21,4.46 8.23,4.44 8.23,4.4 V 4.25 L 8.22,4.24 H 7.67 Z"
     id="path2"
     inkscape:connector-curvature="0"
     style="fill:#2c89a0" />
</svg>
